components/icon/svg/24/action_upload.svg

<?xml version="1.0" encoding="UTF-8"?>
<svg width="24px" height="24px" viewBox="0 0 24 24" version="1.1" xmlns="http://www.w3.org/2000/svg" xmlns:xlink="http://www.w3.org/1999/xlink">
    <!-- Generator: Sketch 64 (93537) - https://sketch.com -->
    <title>ic-db_action_upload_24</title>
    <desc>Created with Sketch.</desc>
    <g id="Symbols" stroke="none" stroke-width="1" fill="none" fill-rule="evenodd">
        <g id="24dp-Icon/Action/Upload" fill="#282D37">
            <path d="M6,22 L18,22 C19.6562,22 21,20.6562 21,19 L21,15 C21,14.4375 20.5625,14 20,14 C19.4375,14 19,14.4375 19,15 L19,19 C19,19.5625 18.5625,20 18,20 L6,20 C5.4375,20 5,19.5625 5,19 L5,15 C5,14.4375 4.5625,14 4,14 C3.4375,14 3,14.4375 3,15 L3,19 C3,20.6562 4.3438,22 6,22 Z M12,2 C12.25,2 12.5312,2.09349165 12.7188,2.28057472 L16.6875,6.27168026 C16.9062,6.45876333 17,6.70820742 17,6.98888192 C17,7.51890074 16.5625,7.9554279 16,7.9554279 C15.75,7.9554279 15.4688,7.86193626 15.2812,7.67475341 L13,5.39862592 L13,15.0022236 C13,15.5634728 12.5312,16 12,16 C11.4375,16 11,15.5634728 11,15.0022236 L11,5.39862592 L8.7188,7.67475341 C8.5,7.86193626 8.25,7.9554279 8,7.9554279 C7.4375,7.9554279 7,7.51890074 7,6.95765152 C7,6.70820742 7.0938,6.45876333 7.3125,6.27168026 L11.2812,2.28057472 C11.4688,2.09349165 11.75,2 12,2 Z" id="🎨-Color"></path>
        </g>
    </g>
</svg>

<svg width="24" height="24" xmlns="http://www.w3.org/2000/svg"><path d="M6 22h12a3 3 0 003-3v-4c0-.563-.438-1-1-1-.563 0-1 .438-1 1v4c0 .563-.438 1-1 1H6c-.563 0-1-.438-1-1v-4c0-.563-.438-1-1-1-.563 0-1 .438-1 1v4a3 3 0 003 3zm6-20c.25 0 .531.093.719.28l3.969 3.992a.902.902 0 01.312.717c0 .53-.438.966-1 .966-.25 0-.531-.093-.719-.28L13 5.399v9.603c0 .561-.469.998-1 .998-.563 0-1-.437-1-.998V5.4L8.719 7.675c-.219.187-.469.28-.719.28-.563 0-1-.436-1-.997 0-.25.094-.5.313-.686L11.28 2.28C11.47 2.093 11.75 2 12 2z" fill="#282D37" fill-rule="evenodd"/></svg>
